modules/feathericon/icons/facebook.svg

<?xml version="1.0" encoding="UTF-8"?>
<svg width="24px" height="24px" viewBox="0 0 24 24" version="1.1" xmlns="http://www.w3.org/2000/svg" xmlns:xlink="http://www.w3.org/1999/xlink">
    <!-- Generator: sketchtool 52.2 (67145) - http://www.bohemiancoding.com/sketch -->
    <title>facebook</title>
    <desc>Created with sketchtool.</desc>
    <g id="brand" stroke="none" stroke-width="1" fill="none" fill-rule="evenodd">
        <g id="facebook" fill="#000000">
            <path d="M15.7246987,22.0001499 L15.7246987,14.2550985 L18.3244671,14.2550985 L18.7136868,11.2366604 L15.7246987,11.2366604 L15.7246987,9.30952104 C15.7246987,8.43561277 15.9673427,7.84009322 17.220579,7.84009322 L18.8189724,7.83934386 L18.8189724,5.13968519 C18.5424571,5.10296636 17.5936874,5.02076113 16.4898742,5.02076113 C14.1853552,5.02076113 12.6077192,6.42739225 12.6077192,9.01067469 L12.6077192,11.2366604 L10.0013563,11.2366604 L10.0013563,14.2550985 L12.6077192,14.2550985 L12.6077192,22.0001499 L3.10381314,22.0001499 C2.49405567,22.0001499 2,21.5058694 2,20.8963367 L2,3.10388807 C2,2.49413061 2.49405567,2 3.10381314,2 L20.8961869,2 C21.5057195,2 22,2.49413061 22,3.10388807 L22,20.8963367 C22,21.5058694 21.5057195,22.0001499 20.8961869,22.0001499 L15.7246987,22.0001499 Z" id="Shape"></path>
        </g>
    </g>
</svg>

<svg width="24" height="24" viewBox="0 0 24 24" xmlns="http://www.w3.org/2000/svg"><path d="M15.725 22v-7.745h2.6l.389-3.018h-2.99V9.31c0-.874.243-1.47 1.497-1.47h1.598v-2.7a21.391 21.391 0 0 0-2.33-.12c-2.304 0-3.881 1.407-3.881 3.99v2.227H10v3.018h2.607V22H3.104C2.494 22 2 21.506 2 20.896V3.104C2 2.494 2.494 2 3.104 2h17.792C21.506 2 22 2.494 22 3.104v17.792c0 .61-.494 1.104-1.104 1.104h-5.171z" fill="#000" fill-rule="evenodd"/></svg>
